gtk-icons/Papirus-GTK/48x48/apps/muon.svg

<?xml version="1.0" encoding="UTF-8" standalone="no"?>
<!-- Created with Inkscape (http://www.inkscape.org/) -->
<svg id="svg2817" xmlns:rdf="http://www.w3.org/1999/02/22-rdf-syntax-ns#" xmlns="http://www.w3.org/2000/svg" height="48" width="48" version="1.0" xmlns:cc="http://creativecommons.org/ns#" xmlns:xlink="http://www.w3.org/1999/xlink" xmlns:dc="http://purl.org/dc/elements/1.1/">
 <defs id="defs14">
  <linearGradient id="linearGradient4156" y2="5.0393" gradientUnits="userSpaceOnUse" x2="24.132" y1="24.055" x1="23.868">
   <stop id="stop4152" offset="0"/>
   <stop id="stop4154" stop-opacity="0" offset="1"/>
  </linearGradient>
 </defs>
 <metadata id="metadata57">
  <rdf:RDF>
   <cc:Work rdf:about="">
    <dc:format>image/svg+xml</dc:format>
    <dc:type rdf:resource="http://purl.org/dc/dcmitype/StillImage"/>
    <dc:title/>
   </cc:Work>
  </rdf:RDF>
 </metadata>
 <path id="path4026" opacity=".05" d="m6 5c-1.108 0-2 0.892-2 2v17h40v-17c0-1.108-0.892-2-2-2h-36z"/>
 <rect id="rect4203" transform="matrix(0,-1,-1,0,0,0)" rx="2" ry="2" height="40" width="40" y="-44" x="-44" fill="#fabd7f"/>
 <path id="path3937" d="m22 12c-0.554 0-1 0.446-1 1v16h-4l7 9 7-9h-4v-16c0-0.554-0.446-1-1-1h-4z" fill="#3f3f3f"/>
 <path id="path4009" opacity=".1" d="m6 5c-1.108 0-2 0.892-2 2v17h40v-17c0-1.108-0.892-2-2-2h-36z" fill="url(#linearGradient4156)"/>
 <path id="path4068" opacity=".1" d="m4 7v-1c0-1.108 0.892-2 2-2h36c1.108 0 2 0.892 2 2v1c0-1.108-0.892-2-2-2h-36c-1.108 0-2 0.892-2 2z" fill="#fff"/>
 <path id="rect4177" opacity=".3" d="m4 41v1c0 1.108 0.892 2 2 2h36c1.108 0 2-0.892 2-2v-1c0 1.108-0.892 2-2 2h-36c-1.108 0-2-0.892-2-2z"/>
</svg>

<?xml version="1.0" encoding="UTF-8" standalone="no"?>
<!-- Created with Inkscape (http://www.inkscape.org/) -->

<svg
   xmlns:dc="http://purl.org/dc/elements/1.1/"
   xmlns:cc="http://creativecommons.org/ns#"
   xmlns:rdf="http://www.w3.org/1999/02/22-rdf-syntax-ns#"
   xmlns:svg="http://www.w3.org/2000/svg"
   xmlns="http://www.w3.org/2000/svg"
   xmlns:xlink="http://www.w3.org/1999/xlink"
   xmlns:sodipodi="http://sodipodi.sourceforge.net/DTD/sodipodi-0.dtd"
   xmlns:inkscape="http://www.inkscape.org/namespaces/inkscape"
   id="svg2817"
   height="48"
   width="48"
   version="1.0"
   inkscape:version="0.91 r"
   sodipodi:docname="muon.svg">
  <defs
     id="defs14">
    <linearGradient
       inkscape:collect="always"
       id="linearGradient4150">
      <stop
         style="stop-color:#000000;stop-opacity:1;"
         offset="0"
         id="stop4152" />
      <stop
         style="stop-color:#000000;stop-opacity:0;"
         offset="1"
         id="stop4154" />
    </linearGradient>
    <linearGradient
       inkscape:collect="always"
       xlink:href="#linearGradient4150"
       id="linearGradient4156"
       x1="23.86755"
       y1="24.055346"
       x2="24.13245"
       y2="5.0392623"
       gradientUnits="userSpaceOnUse" />
  </defs>
  <sodipodi:namedview
     pagecolor="#ffffff"
     bordercolor="#666666"
     borderopacity="1"
     objecttolerance="10"
     gridtolerance="10"
     guidetolerance="10"
     inkscape:pageopacity="0"
     inkscape:pageshadow="2"
     inkscape:window-width="1600"
     inkscape:window-height="846"
     id="namedview12"
     showgrid="false"
     inkscape:zoom="1"
     inkscape:cx="24"
     inkscape:cy="24"
     inkscape:window-x="0"
     inkscape:window-y="26"
     inkscape:window-maximized="1"
     inkscape:current-layer="svg2817" />
  <metadata
     id="metadata57">
    <rdf:RDF>
      <cc:Work
         rdf:about="">
        <dc:format>image/svg+xml</dc:format>
        <dc:type
           rdf:resource="http://purl.org/dc/dcmitype/StillImage" />
        <dc:title />
      </cc:Work>
    </rdf:RDF>
  </metadata>
  <path
     style="opacity:0.05"
     inkscape:connector-curvature="0"
     d="M 6,5 C 4.892,5 4,5.892 4,7 L 4,24 44,24 44,7 C 44,5.892 43.108,5 42,5 L 6,5 Z"
     id="path4026" />
  <rect
     style="fill:#fabd7f"
     x="-44"
     y="-44"
     width="40"
     height="40"
     ry="2"
     rx="2"
     transform="matrix(0,-1,-1,0,0,0)"
     id="rect4203" />
  <path
     style="fill:#3f3f3f;fill-opacity:1;opacity:1"
     d="M 22 12 C 21.446 12 21 12.446 21 13 L 21 29 L 17 29 L 24 38 L 31 29 L 27 29 L 27 13 C 27 12.446 26.554 12 26 12 L 22 12 z "
     id="path3937" />
  <path
     style="opacity:0.1;fill:url(#linearGradient4156);fill-opacity:1"
     inkscape:connector-curvature="0"
     d="M 6,5 C 4.892,5 4,5.892 4,7 L 4,24 44,24 44,7 C 44,5.892 43.108,5 42,5 L 6,5 Z"
     id="path4009" />
  <path
     style="opacity:0.1;fill:#ffffff"
     inkscape:connector-curvature="0"
     d="M 4,7 4,6 C 4,4.892 4.892,4 6,4 l 36,0 c 1.108,0 2,0.892 2,2 l 0,1 C 44,5.892 43.108,5 42,5 L 6,5 C 4.892,5 4,5.892 4,7 Z"
     id="path4068" />
  <path
     style="opacity:0.3"
     inkscape:connector-curvature="0"
     d="m 4,41 0,1 c 0,1.108 0.892,2 2,2 l 36,0 c 1.108,0 2,-0.892 2,-2 l 0,-1 c 0,1.108 -0.892,2 -2,2 L 6,43 C 4.892,43 4,42.108 4,41 Z"
     id="rect4177" />
</svg>
